svgs/sharp-solid/farm.svg

<svg xmlns="http://www.w3.org/2000/svg" viewBox="0 0 576 512"><!--! Font Awesome Pro 6.6.0 by @fontawesome - https://fontawesome.com License - https://fontawesome.com/license (Commercial License) Copyright 2024 Fonticons, Inc. --><path d="M0 96C0 43 43 0 96 0s96 43 96 96L0 96zm0 32l181.4 0-51 123.8-2.4 5.9 0 6.3 0 248L0 512 0 128zM160 512l0-248 56-136L368 64l152 64 56 136 0 248-144 0 0-112-128 0 0 112-144 0zM416 224l-96 0 0 96 96 0 0-96z"/></svg>

<svg xmlns="http://www.w3.org/2000/svg" viewBox="0 0 576 512"><!--! Font Awesome Pro 6.4.2 by @fontawesome - https://fontawesome.com License - https://fontawesome.com/license (Commercial License) Copyright 2023 Fonticons, Inc. --><path d="M0 96C0 43 43 0 96 0s96 43 96 96H0zm0 32H181.4l-51 123.8-2.4 5.9V264 512H0V128zM160 512V264l56-136L368 64l152 64 56 136V512H432V400H304V512H160zM416 224H320v96h96V224z"/></svg>
